.local/share/icons/Gruvbox-Plus-Dark/actions/16/paint-gradient-conical.svg

<svg width="16" height="16" version="1.1" xmlns="http://www.w3.org/2000/svg">
  <defs>
    <style id="current-color-scheme" type="text/css">.ColorScheme-Text { color:#ebdbb2; } .ColorScheme-Highlight { color:#458588; }</style>
  </defs>
  <path class="ColorScheme-Text" d="m16 8a8 8 0 0 1-8 8 8 8 0 0 1-8-8 8 8 0 0 1 8-8 8 8 0 0 1 8 8z" fill="currentColor" opacity=".3"/>
  <path class="ColorScheme-Text" d="m8 0v8h8a8 8 0 0 0-8-8zm0 8h-8a8 8 0 0 0 8 8v-8z" fill="currentColor"/>
</svg>

<svg xmlns="http://www.w3.org/2000/svg" width="16" height="16" version="1.1">
 <defs>
  <style id="current-color-scheme" type="text/css">
   .ColorScheme-Text { color:#565656; } .ColorScheme-Highlight { color:#4285f4; }
  </style>
 </defs>
 <path style="opacity:0.3;fill:currentColor" class="ColorScheme-Text" d="M 16,8 A 8,8 0 0 1 8,16 8,8 0 0 1 0,8 8,8 0 0 1 8,0 8,8 0 0 1 16,8 Z"/>
 <path style="fill:currentColor" class="ColorScheme-Text" d="M 8 0 L 8 8 L 16 8 A 8 8 0 0 0 8 0 z M 8 8 L 0 8 A 8 8 0 0 0 8 16 L 8 8 z"/>
</svg>
